www/assets/icons/language.svg

<svg xmlns="http://www.w3.org/2000/svg" width="24" height="24" viewBox="0 0 24 24" fill='currentColor'><path d="M11.99 2C6.47 2 2 6.48 2 12s4.47 10 9.99 10C17.52 22 22 17.52 22 12S17.52 2 11.99 2m6.93 6h-2.95a15.7 15.7 0 0 0-1.38-3.56A8.03 8.03 0 0 1 18.92 8M12 4.04c.83 1.2 1.48 2.53 1.91 3.96h-3.82c.43-1.43 1.08-2.76 1.91-3.96M4.26 14C4.1 13.36 4 12.69 4 12s.1-1.36.26-2h3.38c-.08.66-.14 1.32-.14 2s.06 1.34.14 2zm.82 2h2.95c.32 1.25.78 2.45 1.38 3.56A8 8 0 0 1 5.08 16m2.95-8H5.08a8 8 0 0 1 4.33-3.56A15.7 15.7 0 0 0 8.03 8M12 19.96c-.83-1.2-1.48-2.53-1.91-3.96h3.82c-.43 1.43-1.08 2.76-1.91 3.96M14.34 14H9.66c-.09-.66-.16-1.32-.16-2s.07-1.35.16-2h4.68c.09.65.16 1.32.16 2s-.07 1.34-.16 2m.25 5.56c.6-1.11 1.06-2.31 1.38-3.56h2.95a8.03 8.03 0 0 1-4.33 3.56M16.36 14c.08-.66.14-1.32.14-2s-.06-1.34-.14-2h3.38c.16.64.26 1.31.26 2s-.1 1.36-.26 2z"/></svg>

<svg width="24" height="24" viewBox="0 0 24 24" xmlns="http://www.w3.org/2000/svg" fill='currentColor'><path d="M11.99 2C6.47 2 2 6.48 2 12C2 17.52 6.47 22 11.99 22C17.52 22 22 17.52 22 12C22 6.48 17.52 2 11.99 2ZM18.92 8H15.97C15.65 6.75 15.19 5.55 14.59 4.44C16.43 5.07 17.96 6.35 18.92 8ZM12 4.04C12.83 5.24 13.48 6.57 13.91 8H10.09C10.52 6.57 11.17 5.24 12 4.04ZM4.26 14C4.1 13.36 4 12.69 4 12C4 11.31 4.1 10.64 4.26 10H7.64C7.56 10.66 7.5 11.32 7.5 12C7.5 12.68 7.56 13.34 7.64 14H4.26ZM5.08 16H8.03C8.35 17.25 8.81 18.45 9.41 19.56C7.57 18.93 6.04 17.66 5.08 16ZM8.03 8H5.08C6.04 6.34 7.57 5.07 9.41 4.44C8.81 5.55 8.35 6.75 8.03 8ZM12 19.96C11.17 18.76 10.52 17.43 10.09 16H13.91C13.48 17.43 12.83 18.76 12 19.96ZM14.34 14H9.66C9.57 13.34 9.5 12.68 9.5 12C9.5 11.32 9.57 10.65 9.66 10H14.34C14.43 10.65 14.5 11.32 14.5 12C14.5 12.68 14.43 13.34 14.34 14ZM14.59 19.56C15.19 18.45 15.65 17.25 15.97 16H18.92C17.96 17.65 16.43 18.93 14.59 19.56ZM16.36 14C16.44 13.34 16.5 12.68 16.5 12C16.5 11.32 16.44 10.66 16.36 10H19.74C19.9 10.64 20 11.31 20 12C20 12.69 19.9 13.36 19.74 14H16.36Z"/></svg>
